Numix-GalliumOS/24/devices/gnome-dev-pcmcia.svg

<?xml version="1.0" encoding="UTF-8" standalone="no"?>
<svg
   xmlns:dc="http://purl.org/dc/elements/1.1/"
   xmlns:cc="http://creativecommons.org/ns#"
   xmlns:rdf="http://www.w3.org/1999/02/22-rdf-syntax-ns#"
   xmlns:svg="http://www.w3.org/2000/svg"
   xmlns="http://www.w3.org/2000/svg"
   xmlns:xlink="http://www.w3.org/1999/xlink"
   xmlns:sodipodi="http://sodipodi.sourceforge.net/DTD/sodipodi-0.dtd"
   xmlns:inkscape="http://www.inkscape.org/namespaces/inkscape"
   width="24"
   height="24"
   viewBox="0 0 24 24"
   id="svg1603"
   version="1.1"
   inkscape:version="0.91 r"
   sodipodi:docname="gnome-dev-pcmcia.svg">
  <metadata
     id="metadata1703">
    <rdf:RDF>
      <cc:Work
         rdf:about="">
        <dc:format>image/svg+xml</dc:format>
        <dc:type
           rdf:resource="http://purl.org/dc/dcmitype/StillImage" />
      </cc:Work>
    </rdf:RDF>
  </metadata>
  <sodipodi:namedview
     pagecolor="#ffffff"
     bordercolor="#666666"
     borderopacity="1"
     objecttolerance="10"
     gridtolerance="10"
     guidetolerance="10"
     inkscape:pageopacity="0"
     inkscape:pageshadow="2"
     inkscape:window-width="640"
     inkscape:window-height="480"
     id="namedview1701" />
  <defs
     id="defs1605">
    <clipPath
       id="clip1">
      <rect
         width="24"
         height="24"
         id="rect1608" />
    </clipPath>
    <filter
       width="100%"
       x="0"
       y="0"
       height="100%"
       filterUnits="objectBoundingBox"
       id="alpha">
      <feColorMatrix
         values="0 0 0 0 1 0 0 0 0 1 0 0 0 0 1 0 0 0 1 0"
         in="SourceGraphic"
         type="matrix"
         id="feColorMatrix1611" />
    </filter>
    <g
       style="clip-path:url(#clip1)"
       id="surface6"
       clip-path="url(#clip1)">
      <path
         style="fill:url(#radial0)"
         d="M 4.574219 20.5 L 0 20.5 L 0 17.5 L 4.574219 17.5 Z "
         id="path1614" />
      <path
         style="fill:url(#radial1)"
         d="M 16.925781 17.5 L 21.5 17.5 L 21.5 20.5 L 16.925781 20.5 Z "
         id="path1616" />
      <path
         style="fill:url(#linear0)"
         d="M 4.574219 17.5 L 16.925781 17.5 L 16.925781 20.5 L 4.574219 20.5 Z "
         id="path1618" />
    </g>
    <linearGradient
       id="linear1"
       y1="13"
       y2="38"
       gradientUnits="userSpaceOnUse"
       x2="0">
      <stop
         offset="0"
         style="stop-color:#fff;stop-opacity:.6"
         id="stop1621" />
      <stop
         offset="1"
         style="stop-color:#fff;stop-opacity:0"
         id="stop1623" />
    </linearGradient>
    <linearGradient
       gradientTransform="scale(.5)"
       id="linear3"
       y1="24"
       y2="28"
       gradientUnits="userSpaceOnUse"
       x2="0">
      <stop
         offset="0"
         style="stop-color:#ecd562"
         id="stop1626" />
      <stop
         offset="1"
         style="stop-color:#df8122"
         id="stop1628" />
    </linearGradient>
    <linearGradient
       gradientTransform="matrix(.45744 0 0 .375 -.45744 2.5)"
       id="linear0"
       y1="48.001"
       y2="40"
       gradientUnits="userSpaceOnUse"
       x2="0">
      <stop
         offset="0"
         style="stop-color:#000;stop-opacity:0"
         id="stop1631" />
      <stop
         offset=".5"
         style="stop-color:#000"
         id="stop1633" />
      <stop
         offset="1"
         style="stop-color:#000;stop-opacity:0"
         id="stop1635" />
    </linearGradient>
    <linearGradient
       id="linear2"
       y1="17"
       y2="18"
       gradientUnits="userSpaceOnUse"
       x2="0">
      <stop
         offset="0"
         style="stop-color:#fdfdfd"
         id="stop1638" />
      <stop
         offset="1"
         style="stop-color:#9f9f9f"
         id="stop1640" />
    </linearGradient>
    <mask
       id="mask0">
      <g
         style="filter:url(#alpha)"
         id="g1643">
        <rect
           width="24"
           x="0"
           y="0"
           height="24"
           style="fill:#000;fill-opacity:.302"
           id="rect1645" />
      </g>
    </mask>
    <radialGradient
       cx="9.286"
       cy="18.037"
       gradientTransform="matrix(2.65854 -.03734 .0168 1.19584 -15.70336 .10714)"
       id="radial3"
       r="17"
       gradientUnits="userSpaceOnUse">
      <stop
         offset="0"
         style="stop-color:#efefef"
         id="stop1648" />
      <stop
         offset="1"
         style="stop-color:#c8c8c8"
         id="stop1650" />
    </radialGradient>
    <radialGradient
       cx="12.156"
       cy="40.48"
       gradientTransform="matrix(1.81157 -.03214 .02008 1.13174 -10.67818 -10.72976)"
       id="radial2"
       r="22"
       gradientUnits="userSpaceOnUse">
      <stop
         offset="0"
         style="stop-color:#efefef"
         id="stop1653" />
      <stop
         offset="1"
         style="stop-color:#c8c8c8"
         id="stop1655" />
    </radialGradient>
    <radialGradient
       cx="1"
       cy="44"
       gradientTransform="matrix(.91489 0 0 .3 16.01057 5.8)"
       id="radial1"
       r="5"
       gradientUnits="userSpaceOnUse">
      <stop
         offset="0"
         style="stop-color:#000"
         id="stop1658" />
      <stop
         offset="1"
         style="stop-color:#000;stop-opacity:0"
         id="stop1660" />
    </radialGradient>
    <radialGradient
       cx="1"
       cy="44"
       gradientTransform="matrix(-.91489 0 0 -.3 5.48934 32.2)"
       id="radial0"
       r="5"
       gradientUnits="userSpaceOnUse">
      <stop
         offset="0"
         style="stop-color:#000"
         id="stop1663" />
      <stop
         offset="1"
         style="stop-color:#000;stop-opacity:0"
         id="stop1665" />
    </radialGradient>
  </defs>
  <use
     style="mask:url(#mask0)"
     xlink:href="#surface6"
     id="use1667"
     mask="url(#mask0)" />
  <g
     style="stroke-linecap:round"
     id="g1669">
    <path
       style="fill:url(#radial2);stroke:#8c8c8c"
       d="M 3.5 12.5 C 2.945312 12.5 2.5 12.945312 2.5 13.5 L 2.5 37.5 C 2.5 38.054688 2.945312 38.5 3.5 38.5 L 38.5 38.5 C 39.054688 38.5 39.5 38.054688 39.5 37.5 C 39.484375 37 40 36.515625 40.5 36.5 L 44.5 36.5 C 45.054688 36.5 45.5 36.054688 45.5 35.5 L 45.5 15.5 C 45.5 14.945312 45.054688 14.5 44.5 14.5 L 40.5 14.5 C 40 14.5 39.53125 14 39.5 13.5 C 39.5 12.945312 39.054688 12.5 38.5 12.5 Z "
       transform="scale(.5)"
       id="path1671" />
    <path
       style="fill:none;stroke:url(#linear1)"
       d="M 3.5 13.46875 C 3.46875 13.46875 3.46875 13.46875 3.46875 13.5 L 3.46875 37.5 C 3.46875 37.53125 3.46875 37.53125 3.5 37.53125 L 38.5 37.53125 C 38.515625 37.53125 38.53125 37.53125 38.53125 37.53125 C 38.53125 37.53125 38.53125 37.515625 38.53125 37.5 C 38.523438 36.921875 38.789062 36.453125 39.125 36.125 C 39.46875 35.789062 39.914062 35.546875 40.46875 35.53125 C 40.476562 35.53125 40.492188 35.53125 40.5 35.53125 L 44.5 35.53125 C 44.53125 35.53125 44.53125 35.53125 44.53125 35.5 L 44.53125 15.5 C 44.53125 15.46875 44.53125 15.46875 44.5 15.46875 L 40.5 15.46875 C 39.921875 15.46875 39.460938 15.210938 39.125 14.875 C 38.789062 14.539062 38.5625 14.101562 38.53125 13.5625 C 38.53125 13.539062 38.53125 13.523438 38.53125 13.5 C 38.53125 13.46875 38.53125 13.46875 38.5 13.46875 Z "
       transform="scale(.5)"
       id="path1673" />
    <path
       style="fill:url(#radial3);stroke:url(#linear2)"
       d="M 3.5 16.5 L 35.5 16.5 C 36.054688 16.5 36.5 16.945312 36.5 17.5 L 36.5 33.5 C 36.5 34.054688 36.054688 34.5 35.5 34.5 L 3.5 34.5 "
       transform="scale(.5)"
       id="path1675" />
  </g>
  <g
     style="fill:#d6b943"
     id="g1677">
    <path
       d="M 4 6.515625 L 9 6.515625 L 9 7 L 4 7 Z "
       id="path1679" />
    <path
       d="M 4 18.515625 L 9 18.515625 L 9 19 L 4 19 Z "
       id="path1681" />
  </g>
  <path
     style="fill:#606060"
     d="M 5.5 9.5 L 16.5 9.5 C 16.777344 9.5 17 9.722656 17 10 L 17 15.5 C 17 15.777344 16.777344 16 16.5 16 L 5.5 16 C 5.222656 16 5 15.777344 5 15.5 L 5 10 C 5 9.722656 5.222656 9.5 5.5 9.5 Z "
     id="path1683" />
  <path
     style="fill:url(#linear3)"
     d="M 8 12.5 L 16.5 12.5 L 16.5 13.5 L 8 13.5 Z "
     id="path1685" />
  <g
     style="fill:#fff"
     id="g1687">
    <path
       d="M 8 14.015625 L 8.722656 14.015625 C 8.882812 14.015625 9 14.054688 9.078125 14.132812 C 9.15625 14.210938 9.195312 14.320312 9.195312 14.464844 C 9.195312 14.609375 9.152344 14.726562 9.066406 14.808594 C 8.980469 14.890625 8.851562 14.933594 8.675781 14.933594 L 8.4375 14.933594 L 8.4375 15.472656 L 8 15.472656 L 8 14.015625 M 8.4375 14.636719 L 8.542969 14.636719 C 8.628906 14.636719 8.6875 14.621094 8.722656 14.59375 C 8.753906 14.5625 8.773438 14.523438 8.773438 14.476562 C 8.773438 14.429688 8.757812 14.390625 8.726562 14.359375 C 8.699219 14.328125 8.644531 14.3125 8.5625 14.3125 L 8.4375 14.3125 L 8.4375 14.636719 "
       id="path1689" />
    <path
       d="M 10.363281 14.878906 L 10.746094 14.996094 C 10.71875 15.109375 10.679688 15.199219 10.625 15.273438 C 10.570312 15.347656 10.5 15.40625 10.417969 15.441406 C 10.335938 15.480469 10.234375 15.5 10.105469 15.5 C 9.953125 15.5 9.828125 15.476562 9.730469 15.429688 C 9.632812 15.386719 9.550781 15.304688 9.480469 15.1875 C 9.410156 15.070312 9.375 14.921875 9.375 14.742188 C 9.375 14.5 9.4375 14.316406 9.558594 14.1875 C 9.683594 14.054688 9.859375 13.992188 10.085938 13.992188 C 10.261719 13.992188 10.402344 14.027344 10.503906 14.101562 C 10.605469 14.175781 10.683594 14.289062 10.730469 14.445312 L 10.347656 14.53125 C 10.332031 14.488281 10.320312 14.457031 10.304688 14.433594 C 10.28125 14.402344 10.25 14.375 10.214844 14.355469 C 10.179688 14.335938 10.140625 14.328125 10.097656 14.328125 C 9.996094 14.328125 9.921875 14.367188 9.871094 14.453125 C 9.832031 14.511719 9.808594 14.609375 9.808594 14.738281 C 9.808594 14.902344 9.832031 15.011719 9.882812 15.070312 C 9.929688 15.132812 9.996094 15.160156 10.082031 15.160156 C 10.164062 15.160156 10.226562 15.136719 10.269531 15.089844 C 10.3125 15.039062 10.34375 14.96875 10.363281 14.878906 "
       id="path1691" />
    <path
       d="M 10.949219 14.015625 L 11.523438 14.015625 L 11.746094 14.902344 L 11.964844 14.015625 L 12.535156 14.015625 L 12.535156 15.472656 L 12.179688 15.472656 L 12.179688 14.363281 L 11.902344 15.472656 L 11.582031 15.472656 L 11.308594 14.363281 L 11.308594 15.472656 L 10.949219 15.472656 L 10.949219 14.015625 "
       id="path1693" />
    <path
       d="M 13.75 14.878906 L 14.132812 14.996094 C 14.105469 15.109375 14.066406 15.199219 14.011719 15.273438 C 13.957031 15.347656 13.886719 15.40625 13.804688 15.441406 C 13.722656 15.480469 13.621094 15.5 13.492188 15.5 C 13.339844 15.5 13.214844 15.476562 13.117188 15.429688 C 13.019531 15.386719 12.9375 15.304688 12.867188 15.1875 C 12.796875 15.070312 12.761719 14.921875 12.761719 14.742188 C 12.761719 14.5 12.824219 14.316406 12.945312 14.1875 C 13.070312 14.054688 13.246094 13.992188 13.472656 13.992188 C 13.652344 13.992188 13.789062 14.027344 13.890625 14.101562 C 13.992188 14.175781 14.070312 14.289062 14.117188 14.445312 L 13.734375 14.53125 C 13.722656 14.488281 13.707031 14.457031 13.691406 14.433594 C 13.667969 14.402344 13.636719 14.375 13.601562 14.355469 C 13.566406 14.335938 13.527344 14.328125 13.484375 14.328125 C 13.386719 14.328125 13.308594 14.367188 13.257812 14.453125 C 13.21875 14.511719 13.199219 14.609375 13.199219 14.738281 C 13.199219 14.902344 13.222656 15.011719 13.269531 15.070312 C 13.316406 15.132812 13.382812 15.160156 13.46875 15.160156 C 13.550781 15.160156 13.613281 15.136719 13.65625 15.089844 C 13.699219 15.039062 13.730469 14.96875 13.75 14.878906 "
       id="path1695" />
    <path
       d="M 14.359375 14.015625 L 14.796875 14.015625 L 14.796875 15.472656 L 14.359375 15.472656 L 14.359375 14.015625 "
       id="path1697" />
    <path
       d="M 15.976562 15.234375 L 15.480469 15.234375 L 15.410156 15.472656 L 14.964844 15.472656 L 15.496094 14.015625 L 15.96875 14.015625 L 16.5 15.472656 L 16.042969 15.472656 L 15.976562 15.234375 M 15.882812 14.917969 L 15.726562 14.394531 L 15.574219 14.917969 L 15.882812 14.917969 "
       id="path1699" />
  </g>
</svg>

<svg xmlns="http://www.w3.org/2000/svg" xmlns:xlink="http://www.w3.org/1999/xlink" viewBox="0 0 24 24">
 <defs>
  <filter width="24" x="0" y="0" height="24" filterUnits="objectBoundingBox" id="alpha">
   <feColorMatrix values="0 0 0 0 1 0 0 0 0 1 0 0 0 0 1 0 0 0 1 0" in="SourceGraphic" type="matrix"/>
  </filter>
  <g id="surface6">
   <path d="m 4.574 20.5 l -4.574 0 l 0 -3 l 4.574 0 Z" style="fill:url(#radial0)"/>
   <path d="m 16.926 17.5 l 4.574 0 l 0 3 l -4.574 0 Z" style="fill:url(#radial1)"/>
   <path d="m 4.574 17.5 l 12.352 0 l 0 3 l -12.352 0 Z" style="fill:url(#linear0)"/>
  </g>
  <linearGradient id="linear1" y1="13" y2="38" gradientUnits="userSpaceOnUse" x2="0">
   <stop style="stop-color:#fff;stop-opacity:0.6"/>
   <stop offset="1" style="stop-color:#fff;stop-opacity:0"/>
  </linearGradient>
  <linearGradient gradientTransform="scale(.5)" id="linear3" y1="24" y2="28" gradientUnits="userSpaceOnUse" x2="0">
   <stop style="stop-color:#ecd562"/>
   <stop offset="1" style="stop-color:#df8122"/>
  </linearGradient>
  <linearGradient gradientTransform="matrix(.45744 0 0 .375 -.45744 2.5)" id="linear0" y1="48" y2="40" gradientUnits="userSpaceOnUse" x2="0">
   <stop style="stop-color:#000;stop-opacity:0"/>
   <stop offset="0.5" style="stop-color:#000"/>
   <stop offset="1" style="stop-color:#000;stop-opacity:0"/>
  </linearGradient>
  <linearGradient id="linear2" y1="17" y2="18" gradientUnits="userSpaceOnUse" x2="0">
   <stop style="stop-color:#fdfdfd"/>
   <stop offset="1" style="stop-color:#9f9f9f"/>
  </linearGradient>
  <mask id="mask0">
   <g style="filter:url(#alpha)">
    <rect width="24" height="24" style="fill:#000;fill-opacity:0.302"/>
   </g>
  </mask>
  <radialGradient cx="9.286" cy="18.04" gradientTransform="matrix(2.65854 -.03734 .0168 1.19584 -15.70336 .10714)" id="radial3" r="17" gradientUnits="userSpaceOnUse">
   <stop style="stop-color:#efefef"/>
   <stop offset="1" style="stop-color:#c8c8c8"/>
  </radialGradient>
  <radialGradient cx="12.156" cy="40.48" gradientTransform="matrix(1.81157 -.03214 .02008 1.13174 -10.67818 -10.72976)" id="radial2" r="22" gradientUnits="userSpaceOnUse" xlink:href="#radial3"/>
  <radialGradient cx="1" cy="44" gradientTransform="matrix(.91489 0 0 .3 16.01057 5.8)" id="radial1" r="5" gradientUnits="userSpaceOnUse">
   <stop style="stop-color:#000"/>
   <stop offset="1" style="stop-color:#000;stop-opacity:0"/>
  </radialGradient>
  <radialGradient cx="1" cy="44" gradientTransform="matrix(-.91489 0 0 -.3 5.48934 32.2)" id="radial0" r="5" gradientUnits="userSpaceOnUse" xlink:href="#radial1"/>
 </defs>
 <use xlink:href="#surface6" style="mask:url(#mask0)"/>
 <g style="stroke-linecap:round">
  <path d="m 3.5 12.5 c -0.555 0 -1 0.445 -1 1 l 0 24 c 0 0.555 0.445 1 1 1 l 35 0 c 0.555 0 1 -0.445 1 -1 c -0.016 -0.5 0.5 -0.984 1 -1 l 4 0 c 0.555 0 1 -0.445 1 -1 l 0 -20 c 0 -0.555 -0.445 -1 -1 -1 l -4 0 c -0.5 0 -0.969 -0.5 -1 -1 c 0 -0.555 -0.445 -1 -1 -1 Z" transform="scale(.5)" style="fill:url(#radial2);stroke:#8c8c8c"/>
  <path d="m 3.5 13.469 c -0.031 0 -0.031 0 -0.031 0.031 l 0 24 c 0 0.031 0 0.031 0.031 0.031 l 35 0 c 0.016 0 0.031 0 0.031 0 c 0 0 0 -0.016 0 -0.031 c -0.008 -0.578 0.258 -1.047 0.594 -1.375 c 0.344 -0.336 0.789 -0.578 1.344 -0.594 c 0.008 0 0.023 0 0.031 0 l 4 0 c 0.031 0 0.031 0 0.031 -0.031 l 0 -20 c 0 -0.031 0 -0.031 -0.031 -0.031 l -4 0 c -0.578 0 -1.039 -0.258 -1.375 -0.594 c -0.336 -0.336 -0.563 -0.773 -0.594 -1.313 c 0 -0.023 0 -0.039 0 -0.063 c 0 -0.031 0 -0.031 -0.031 -0.031 Z" transform="scale(.5)" style="fill:none;stroke:url(#linear1)"/>
  <path d="m 3.5 16.5 l 32 0 c 0.555 0 1 0.445 1 1 l 0 16 c 0 0.555 -0.445 1 -1 1 l -32 0" transform="scale(.5)" style="fill:url(#radial3);stroke:url(#linear2)"/>
 </g>
 <g style="fill:#d6b943">
  <path d="m 4 6.516 l 5 0 l 0 0.484 l -5 0 Z"/>
  <path d="m 4 18.516 l 5 0 l 0 0.484 l -5 0 Z"/>
 </g>
 <path d="m 5.5 9.5 l 11 0 c 0.277 0 0.5 0.223 0.5 0.5 l 0 5.5 c 0 0.277 -0.223 0.5 -0.5 0.5 l -11 0 c -0.277 0 -0.5 -0.223 -0.5 -0.5 l 0 -5.5 c 0 -0.277 0.223 -0.5 0.5 -0.5 Z" style="fill:#606060"/>
 <path d="m 8 12.5 l 8.5 0 l 0 1 l -8.5 0 Z" style="fill:url(#linear3)"/>
 <g style="fill:#fff">
  <path d="m 8 14.02 l 0.723 0 c 0.16 0 0.277 0.039 0.355 0.117 c 0.078 0.078 0.117 0.188 0.117 0.332 c 0 0.145 -0.043 0.262 -0.129 0.344 c -0.086 0.082 -0.215 0.125 -0.391 0.125 l -0.238 0 l 0 0.539 l -0.438 0 l 0 -1.457 m 0.438 0.621 l 0.105 0 c 0.086 0 0.145 -0.016 0.18 -0.043 c 0.031 -0.031 0.051 -0.07 0.051 -0.117 c 0 -0.047 -0.016 -0.086 -0.047 -0.117 c -0.027 -0.031 -0.082 -0.047 -0.164 -0.047 l -0.125 0 l 0 0.324"/>
  <path d="m 10.363 14.879 l 0.383 0.117 c -0.027 0.113 -0.066 0.203 -0.121 0.277 c -0.055 0.074 -0.125 0.133 -0.207 0.168 c -0.082 0.039 -0.184 0.059 -0.313 0.059 c -0.152 0 -0.277 -0.023 -0.375 -0.07 c -0.098 -0.043 -0.18 -0.125 -0.25 -0.242 c -0.07 -0.117 -0.105 -0.266 -0.105 -0.445 c 0 -0.242 0.063 -0.426 0.184 -0.555 c 0.125 -0.133 0.301 -0.195 0.527 -0.195 c 0.176 0 0.316 0.035 0.418 0.109 c 0.102 0.074 0.18 0.188 0.227 0.344 l -0.383 0.086 c -0.016 -0.043 -0.027 -0.074 -0.043 -0.098 c -0.023 -0.031 -0.055 -0.059 -0.09 -0.078 c -0.035 -0.02 -0.074 -0.027 -0.117 -0.027 c -0.102 0 -0.176 0.039 -0.227 0.125 c -0.039 0.059 -0.063 0.156 -0.063 0.285 c 0 0.164 0.023 0.273 0.074 0.332 c 0.047 0.063 0.113 0.09 0.199 0.09 c 0.082 0 0.145 -0.023 0.188 -0.07 c 0.043 -0.051 0.074 -0.121 0.094 -0.211"/>
  <path d="m 10.949 14.02 l 0.574 0 l 0.223 0.887 l 0.219 -0.887 l 0.57 0 l 0 1.457 l -0.355 0 l 0 -1.109 l -0.277 1.109 l -0.32 0 l -0.273 -1.109 l 0 1.109 l -0.359 0 l 0 -1.457"/>
  <path d="m 13.75 14.879 l 0.383 0.117 c -0.027 0.113 -0.066 0.203 -0.121 0.277 c -0.055 0.074 -0.125 0.133 -0.207 0.168 c -0.082 0.039 -0.184 0.059 -0.313 0.059 c -0.152 0 -0.277 -0.023 -0.375 -0.07 c -0.098 -0.043 -0.18 -0.125 -0.25 -0.242 c -0.07 -0.117 -0.105 -0.266 -0.105 -0.445 c 0 -0.242 0.063 -0.426 0.184 -0.555 c 0.125 -0.133 0.301 -0.195 0.527 -0.195 c 0.18 0 0.316 0.035 0.418 0.109 c 0.102 0.074 0.18 0.188 0.227 0.344 l -0.383 0.086 c -0.012 -0.043 -0.027 -0.074 -0.043 -0.098 c -0.023 -0.031 -0.055 -0.059 -0.09 -0.078 c -0.035 -0.02 -0.074 -0.027 -0.117 -0.027 c -0.098 0 -0.176 0.039 -0.227 0.125 c -0.039 0.059 -0.059 0.156 -0.059 0.285 c 0 0.164 0.023 0.273 0.07 0.332 c 0.047 0.063 0.113 0.09 0.199 0.09 c 0.082 0 0.145 -0.023 0.188 -0.07 c 0.043 -0.051 0.074 -0.121 0.094 -0.211"/>
  <path d="m 14.359 14.02 l 0.438 0 l 0 1.457 l -0.438 0 l 0 -1.457"/>
  <path d="m 15.977 15.234 l -0.496 0 l -0.07 0.238 l -0.445 0 l 0.531 -1.457 l 0.473 0 l 0.531 1.457 l -0.457 0 l -0.066 -0.238 m -0.094 -0.316 l -0.156 -0.523 l -0.152 0.523 l 0.309 0"/>
 </g>
</svg>
